!!!OTL: RAU RAU ROMMELSDOEPPEN
!!!ARE: Europa, Mitteleuropa, Deutschland, Rheinland, Koeln
!!!SCT: E1213
!!!YEM: Copyright 1995, estate of Helmut Schaffrath.
**kern
*ICvox
*Ivox
*M2/4
*k[]
*C:
=1
{8c
8B
8A
8B
=2
8c
8G
8G
8G}
=3
{8c
8B
8c
8B
=4
8c
8G
8G
8G}
=5
{8A
8B
4c
=6
8B
8c
4d}
=7
{8e
8d
8c
8A
=8
8G
8B
4c}
==
!!!AGN: Ansinge -, Brauchtums - Lied, Kirchen - Fest, Fastnacht
!!!ONB: ESAC (Essen Associative Code) Database: ERK3
!!!AMT: simple duple
!!!AIN: vox
!!!EED: Helmut Schaffrath
!!!EEV: 1.0
*-
